svgs/sharp-regular/chart-gantt.svg

<svg xmlns="http://www.w3.org/2000/svg" viewBox="0 0 512 512"><!--! Font Awesome Pro 6.6.0 by @fontawesome - https://fontawesome.com License - https://fontawesome.com/license (Commercial License) Copyright 2024 Fonticons, Inc. --><path d="M48 32l0 24 0 376 440 0 24 0 0 48-24 0L24 480 0 480l0-24L0 56 0 32l48 0zm80 80l24 0 112 0 24 0 0 48-24 0-112 0-24 0 0-48zm88 96l144 0 24 0 0 48-24 0-144 0-24 0 0-48 24 0zm160 96l80 0 24 0 0 48-24 0-80 0-24 0 0-48 24 0z"/></svg>

<svg xmlns="http://www.w3.org/2000/svg" viewBox="0 0 512 512"><!--! Font Awesome Pro 6.4.2 by @fontawesome - https://fontawesome.com License - https://fontawesome.com/license (Commercial License) Copyright 2023 Fonticons, Inc. --><path d="M48 32V56 432H488h24v48H488 24 0V456 56 32H48zm80 80l24 0 112 0 24 0v48l-24 0-112 0-24 0 0-48zm88 96H360h24v48H360 216 192V208h24zm160 96h80 24v48H456 376 352V304h24z"/></svg>
